icons/virtualbox-dark.svg

<svg width="256" height="256" viewBox="0 0 256 256" fill="none" xmlns="http://www.w3.org/2000/svg">
<rect width="256" height="256" rx="60" fill="#282828"/>
<path d="M151.021 60L135.221 114.767H207V79.6638C207 73.8547 204.531 68.6048 200.581 65.0324C198.915 63.5103 197.032 62.2988 194.996 61.46C192.712 60.497 190.027 60 187.559 60H151.021ZM164.908 78.6386H187.805C188.207 78.6386 188.546 78.9804 188.546 79.3842V96.159H159.878L164.908 78.6386Z" fill="#F29111"/>
<path d="M49 60L83.1305 181.12C83.9945 184.133 84.766 185.718 85.9078 187.395C86.309 188.016 86.7719 188.576 87.2348 189.135C88.3766 190.502 89.6727 191.651 91.123 192.614C92.7277 193.701 94.3324 194.509 96.1531 195.099C98.2824 195.783 100.165 196 102.695 196H131.179L143.8 152.075H188.546V176.616C188.546 177.02 188.207 177.361 187.805 177.361H155.681L150.311 196H187.528C192.589 196 196.971 194.198 200.365 191.185C204.439 187.582 207 182.487 207 176.367V133.436H129.852L117.23 177.361H101.276L73.4715 78.6386H92.6969L102.88 114.767H122.075L106.645 60H49Z" fill="#00758A"/>
</svg>

<svg xmlns="http://www.w3.org/2000/svg" width="256" height="256" fill="none"><rect width="256" height="256" fill="#282828" rx="60"/><path fill="#F29111" d="m151.021 60-15.8 54.767H207V79.664c0-5.81-2.469-11.06-6.419-14.632a19 19 0 0 0-5.585-3.572c-2.284-.963-4.969-1.46-7.437-1.46zm13.887 18.639h22.897c.402 0 .741.341.741.745V96.16h-28.668z"/><path fill="#00758A" d="m49 60 34.13 121.12c.865 3.013 1.636 4.598 2.778 6.275.401.621.864 1.181 1.327 1.74a18 18 0 0 0 3.888 3.479c1.605 1.087 3.21 1.895 5.03 2.485 2.13.684 4.012.901 6.542.901h28.484l12.621-43.925h44.746v24.541a.753.753 0 0 1-.741.745h-32.124L150.311 196h37.217c5.061 0 9.443-1.802 12.837-4.815 4.074-3.603 6.635-8.698 6.635-14.818v-42.931h-77.148l-12.622 43.925h-15.954L73.472 78.639h19.225l10.183 36.128h19.195L106.645 60z"/></svg>
